svgs/solid/buildings.svg

<svg xmlns="http://www.w3.org/2000/svg" viewBox="0 0 512 512"><!-- Font Awesome Pro 6.0.0-alpha2 by @fontawesome - https://fontawesome.com License - https://fontawesome.com/license (Commercial License) --><path d="M464 0H240C213.49 0 192 21.49 192 48V128H48C21.49 128 0 149.49 0 176V480C0 497.672 14.326 512 32 512H480C497.674 512 512 497.672 512 480V48C512 21.49 490.51 0 464 0ZM128 336C128 344.836 120.836 352 112 352H80C71.164 352 64 344.836 64 336V304C64 295.162 71.164 288 80 288H112C120.836 288 128 295.162 128 304V336ZM128 240C128 248.836 120.836 256 112 256H80C71.164 256 64 248.836 64 240V208C64 199.162 71.164 192 80 192H112C120.836 192 128 199.162 128 208V240ZM320 304C320 312.836 312.836 320 304 320H272C263.164 320 256 312.836 256 304V272C256 263.162 263.164 256 272 256H304C312.836 256 320 263.162 320 272V304ZM320 208C320 216.836 312.836 224 304 224H272C263.164 224 256 216.836 256 208V176C256 167.162 263.164 160 272 160H304C312.836 160 320 167.162 320 176V208ZM320 112C320 120.836 312.836 128 304 128H272C263.164 128 256 120.836 256 112V80C256 71.162 263.164 64 272 64H304C312.836 64 320 71.162 320 80V112ZM448 304C448 312.836 440.836 320 432 320H400C391.164 320 384 312.836 384 304V272C384 263.162 391.164 256 400 256H432C440.836 256 448 263.162 448 272V304ZM448 208C448 216.836 440.836 224 432 224H400C391.164 224 384 216.836 384 208V176C384 167.162 391.164 160 400 160H432C440.836 160 448 167.162 448 176V208ZM448 112C448 120.836 440.836 128 432 128H400C391.164 128 384 120.836 384 112V80C384 71.162 391.164 64 400 64H432C440.836 64 448 71.162 448 80V112Z"/></svg>

<svg xmlns="http://www.w3.org/2000/svg" viewBox="0 0 512 512"><!--! Font Awesome Pro 6.0.0-alpha3 by @fontawesome - https://fontawesome.com License - https://fontawesome.com/license (Commercial License) --><path d="M464 0h-224C213.5 0 192 21.49 192 48v80.01L48 128c-26.51 0-48 21.49-48 48v304c0 17.67 14.33 32 32 32L480 512c17.67 0 32-14.33 32-32V48C512 21.49 490.5 0 464 0zM128 336c0 8.836-7.164 16-16 16h-32c-8.836 0-16-7.164-16-16v-32c0-8.838 7.164-16 16-16h32c8.836 0 16 7.162 16 16V336zM128 240c0 8.836-7.164 16-16 16h-32c-8.836 0-16-7.164-16-16v-32c0-8.838 7.164-16 16-16h32c8.836 0 16 7.162 16 16V240zM320 304c0 8.836-7.164 16-16 16h-32C263.2 320 256 312.8 256 304v-32C256 263.2 263.2 256 272 256h32C312.8 256 320 263.2 320 272V304zM320 208C320 216.8 312.8 224 304 224h-32C263.2 224 256 216.8 256 208v-32C256 167.2 263.2 160 272 160h32C312.8 160 320 167.2 320 176V208zM320 112C320 120.8 312.8 128 304 128h-32C263.2 128 256 120.8 256 112v-32C256 71.16 263.2 64 272 64h32C312.8 64 320 71.16 320 80V112zM448 304c0 8.836-7.164 16-16 16h-32C391.2 320 384 312.8 384 304v-32C384 263.2 391.2 256 400 256h32C440.8 256 448 263.2 448 272V304zM448 208C448 216.8 440.8 224 432 224h-32C391.2 224 384 216.8 384 208v-32C384 167.2 391.2 160 400 160h32C440.8 160 448 167.2 448 176V208zM448 112C448 120.8 440.8 128 432 128h-32C391.2 128 384 120.8 384 112v-32C384 71.16 391.2 64 400 64h32C440.8 64 448 71.16 448 80V112z"/></svg>
